src/lib/packages/icons/src/assets/line/document-list.svg

<svg width="24" height="24" viewBox="0 0 24 24" fill="none" xmlns="http://www.w3.org/2000/svg">
<path d="M19.5 9.25H17.75V6C17.75 3.582 16.418 2.25 14 2.25H6C3.582 2.25 2.25 3.582 2.25 6V18C2.25 20.418 3.582 21.75 6 21.75H19C20.517 21.75 21.75 20.517 21.75 19V11.5C21.75 10.259 20.74 9.25 19.5 9.25ZM6 20.25C4.423 20.25 3.75 19.577 3.75 18V6C3.75 4.423 4.423 3.75 6 3.75H14C15.577 3.75 16.25 4.423 16.25 6V19C16.25 19.45 16.358 19.875 16.551 20.25H6ZM20.25 19C20.25 19.689 19.689 20.25 19 20.25C18.311 20.25 17.75 19.689 17.75 19V10.75H19.5C19.913 10.75 20.25 11.086 20.25 11.5V19ZM14.25 8C14.25 8.414 13.914 8.75 13.5 8.75H9C8.586 8.75 8.25 8.414 8.25 8C8.25 7.586 8.586 7.25 9 7.25H13.5C13.914 7.25 14.25 7.586 14.25 8ZM14.25 12C14.25 12.414 13.914 12.75 13.5 12.75H9C8.586 12.75 8.25 12.414 8.25 12C8.25 11.586 8.586 11.25 9 11.25H13.5C13.914 11.25 14.25 11.586 14.25 12ZM14.25 16C14.25 16.414 13.914 16.75 13.5 16.75H9C8.586 16.75 8.25 16.414 8.25 16C8.25 15.586 8.586 15.25 9 15.25H13.5C13.914 15.25 14.25 15.586 14.25 16ZM7.25 8C7.25 8.414 6.914 8.75 6.5 8.75C6.086 8.75 5.75 8.414 5.75 8C5.75 7.586 6.086 7.25 6.5 7.25C6.914 7.25 7.25 7.586 7.25 8ZM7.25 12C7.25 12.414 6.914 12.75 6.5 12.75C6.086 12.75 5.75 12.414 5.75 12C5.75 11.586 6.086 11.25 6.5 11.25C6.914 11.25 7.25 11.586 7.25 12ZM7.25 16C7.25 16.414 6.914 16.75 6.5 16.75C6.086 16.75 5.75 16.414 5.75 16C5.75 15.586 6.086 15.25 6.5 15.25C6.914 15.25 7.25 15.586 7.25 16Z" fill="currentColor"/>
</svg>

<svg xmlns="http://www.w3.org/2000/svg" width="24" height="24" fill="none"><path fill="currentColor" d="M19.5 9.25h-1.75V6c0-2.418-1.332-3.75-3.75-3.75H6C3.582 2.25 2.25 3.582 2.25 6v12c0 2.418 1.332 3.75 3.75 3.75h13A2.752 2.752 0 0 0 21.75 19v-7.5c0-1.241-1.01-2.25-2.25-2.25ZM6 20.25c-1.577 0-2.25-.673-2.25-2.25V6c0-1.577.673-2.25 2.25-2.25h8c1.577 0 2.25.673 2.25 2.25v13c0 .45.108.875.301 1.25H6ZM20.25 19c0 .689-.561 1.25-1.25 1.25s-1.25-.561-1.25-1.25v-8.25h1.75a.75.75 0 0 1 .75.75V19Zm-6-11a.75.75 0 0 1-.75.75H9a.75.75 0 0 1 0-1.5h4.5a.75.75 0 0 1 .75.75Zm0 4a.75.75 0 0 1-.75.75H9a.75.75 0 0 1 0-1.5h4.5a.75.75 0 0 1 .75.75Zm0 4a.75.75 0 0 1-.75.75H9a.75.75 0 0 1 0-1.5h4.5a.75.75 0 0 1 .75.75Zm-7-8a.75.75 0 1 1-1.5 0 .75.75 0 0 1 1.5 0Zm0 4a.75.75 0 1 1-1.5 0 .75.75 0 0 1 1.5 0Zm0 4a.75.75 0 1 1-1.5 0 .75.75 0 0 1 1.5 0Z"/></svg>
